X:1
T:Boris 40's
C:François Champs
M:4/4
R:Hornpipe
K:A
cd |: edce dcBd | cdcB ABAE | F2dc B3A | GBef edcd
   |  edce dcBd | cdcB ABAE | F2CE DFEG | FEcB A2 cd :|
   |: eaga efed | caga efec | dffe ^dBba | gaba gecd |
      eaga efed | caga efec | dB3 dcBA | GEcB A2cd :|